client/src/Assets/images/dashboard.svg

<svg width="24" height="24" viewBox="0 0 24 24" fill="none" xmlns="http://www.w3.org/2000/svg">
<path d="M21.3333 0H2.66667C1.2 0 0 1.2 0 2.66667V21.3333C0 22.8 1.2 24 2.66667 24H21.3333C22.8 24 24 22.8 24 21.3333V2.66667C24 1.2 22.8 0 21.3333 0ZM21.3333 21.3333H2.66667V2.66667H21.3333V21.3333ZM5.33333 9.33333H8V18.6667H5.33333V9.33333ZM10.6667 5.33333H13.3333V18.6667H10.6667V5.33333ZM16 13.3333H18.6667V18.6667H16V13.3333Z" fill="#1890FF"/>
</svg>

<svg xmlns="http://www.w3.org/2000/svg" width="24" height="24" viewBox="0 0 24 24">
    <path fill="#FFF" d="M21.333 0H2.667C1.2 0 0 1.2 0 2.667v18.666C0 22.8 1.2 24 2.667 24h18.666C22.8 24 24 22.8 24 21.333V2.667C24 1.2 22.8 0 21.333 0zm0 21.333H2.667V2.667h18.666v18.666zm-16-12H8v9.334H5.333V9.333zm5.334-4h2.666v13.334h-2.666V5.333zm5.333 8h2.667v5.334H16v-5.334z"/>
</svg>
